X: 24285
T: Lost In Blackstick
R: jig
M: 6/8
K: Gmajor
|:dBA ~B2A|GED ~G3|dBA ~B2A|GBd edg|
dBA ~B2A|GED ~G3|AGE ABc|B/c/dg edB:|
|:GAB BAB|edB BAB|~G3 ~B3|AGE AGE|
GAB BAB|ede g2d|e/f/ge age|gab age:|

